X:02
T: Pig on the Engine
C: Norman Blake
S: From CD: "Natasha's Waltz"
S: MandoZine TablEdit Archives
Z: Transcribed by Mike Stangeland for MandoZine
L: 1/8
Q: 460
M: 4/4
K: F
| z4 fg fd | cd cB AF GE | F2 C2 [A2F2] CD |: "F"F2 FA GF CD | FG FD C2 CD | F2 FG Ac cA|
"C"Gc cG c2 [AF][AE] | "Dm"[A2D2] [AD][AE] [AF][AE] [A2D2] | [c2A2] [B2G2] [AF][AE] [AD]E|
FE D"C"F ED CD |1 CD DD D2 CD :|2 CD DD D2 [GD][GD] | "G"[G2D2] [F2C2] [D2=B,2] [DA,]B,|
G,=B, DG E_G =GA | A=B Bd BA GB | "A"A=B _de "D"=d2 [GD][GD] | "G"[G2D2] [F2C2] [D2=B,2] [DA,]B,|
G,=B, DG E_G =GE | DE GD "D"_G=G A_G | "G"GE D=B, G,2 [GD][GD] | "G"[G2D2] [F2C2] [D2=B,2] [DA,]B,|
G,=B, DG E_G =GA | A=B Bd BA GB | "A"A=B _de "D"=d2 [GD][GD] | "G"[G2D2] [F2C2] [D2=B,2] [DA,]B, |
G,=B, DG E_G =GE | DE GD "D"_G=G A_G | "G"GA =BG "C"c2 cd |: "F"f2 fa gf cd | fg fd c2 cd |
"A"e_d ee "Dm"f=d ff | "C"gf ga g2 [ae][ae] | "Dm"[a2e2] [g2d2] [f2c2] [e2B2] | "A"A_d ed "Dm"=de fd |
"A"A_d ef "C"gf eg |1 fc Ac f2 cd :|2 f2 [f2c2] [f2c2] CD | "F"F2 FA GF CD | FG FD C2 CD |
F2 FG Ac cA | "C"Gc cG c2 [AF][AE] | "Dm"[A2D2] [AD][AE] [AF][AE] [A2D2] | [c2A2] [B2G2] [AF][AE] [AD]E |
FE D"C"F ED CD | "Dm"CD DD D2 CD | "F"F2 FA GF CD | FG FD C2 CD | F2 FG A2 [eG][eG] |
"C"[e2G2] [d2F2] [c2E2] [G2B,2] | "Dm"[A2C2] [G2B,2] [F2A,2] [A2E2] | [A2D2] [AF][AE] [A2D2] [AD]E |
FE DF "C"ED CD | "Dm"CD DD D2 [GD][GD] | "G"[G2D2] [F2C2] [D2=B,2] [DA,]B, | G,=B, DG E_G =GA |
A=B Bd BA GB | "A"A=B _de "D"=d2 [GD][GD] | "G"[G2D2] [F2C2] [D2=B,2] [DA,]B, | G,=B, DG E_G =GE |
DE GD "D"_G=G A_G | "G"GE D=B, G,2 [GD][GD] | "G"[G2D2] [F2C2] [D2=B,2] [DA,]B, |
G,=B, DG E_G =GA | A=B Bd BA GB | "A"A=B _de "D"=d2 [GD][GD] | "G"[G2D2] [F2C2] [D2=B,2] [DA,]B, |
G,=B, DG E_G =GE | DE GD "D"_G=G A_G | "G"GA =BG "C"c2 cd | "F"f2 fa gf cd | fg fd c2 cd |
"A"e_d ee "Dm"f=d ff | "C"gf ga g2 fg | "Dm"af ge fd ec | "A"A_d ed "Dm"=de fd |
A_d ef "C"gf eg | "F"f2 _a=a aa aa | _a=a aa _a=a af | (3agf gd f2 cd | "A"e_d ee "Dm"f=d ff |
"C"gf ga g2 fg | "Dm"af ge fd ec | "A"A_d ed "Dm"=de fd | A_d ef "C"gf eg | "F"fc Ac f4 |
